img/svg/icon-font/archive.svg

<svg width="22" height="22" viewBox="0 0 22 22" fill="none" xmlns="http://www.w3.org/2000/svg">
<path d="M21.1406 13.793C21.0585 13.793 20.9795 13.8052 20.9043 13.8267C20.8291 13.8052 20.75 13.793 20.668 13.793H14.9102C14.6325 13.793 14.3722 13.9269 14.2109 14.1528L13.1788 15.5977H8.69228L7.66019 14.1528C7.49889 13.9269 7.23822 13.793 6.96077 13.793H3.00781V9.45312C3.00781 8.97929 3.39336 8.59375 3.86719 8.59375H18.1328C18.6066 8.59375 18.9922 8.97929 18.9922 9.45312V10.3555C18.9922 10.8301 19.3769 11.2148 19.8516 11.2148C20.3262 11.2148 20.7109 10.8301 20.7109 10.3555V9.45312C20.7109 8.69009 20.3774 8.0036 19.8489 7.53111C19.8501 7.51299 19.8516 7.49503 19.8516 7.47656V6.01562C19.8516 5.25377 19.5192 4.56845 18.9922 4.09613V2.57812C18.9922 1.15646 17.8357 0 16.4141 0H5.58594C4.16428 0 3.00781 1.15646 3.00781 2.57812V4.09613C2.48077 4.56845 2.14844 5.25377 2.14844 6.01562V7.30469C2.14844 7.37602 2.158 7.44484 2.17445 7.51114C1.63248 7.98396 1.28906 8.67902 1.28906 9.45312V13.793H1.24609C1.17946 13.793 1.11501 13.8012 1.05273 13.8156C0.990463 13.8012 0.92601 13.793 0.859375 13.793C0.384705 13.793 0 14.1777 0 14.6523V18.5625C0 20.458 1.54201 22 3.4375 22H18.5625C20.458 22 22 20.458 22 18.5625V14.6523C22 14.1777 21.6153 13.793 21.1406 13.793ZM4.72656 2.57812C4.72656 2.10429 5.11211 1.71875 5.58594 1.71875H16.4141C16.8879 1.71875 17.2734 2.10429 17.2734 2.57812V3.4375H4.72656V2.57812ZM3.86719 6.01562C3.86719 5.54179 4.25273 5.15625 4.72656 5.15625H17.2734C17.7473 5.15625 18.1328 5.54179 18.1328 6.01562V6.875H3.86719V6.01562ZM18.5625 20.2812H3.4375C2.48984 20.2812 1.71875 19.5102 1.71875 18.5625V15.5117H6.51866L7.55075 16.9565C7.71205 17.1825 7.97238 17.3164 8.25 17.3164H13.6211C13.8987 17.3164 14.159 17.1825 14.3203 16.9565L15.3524 15.5117H20.2812V18.5625C20.2812 19.5102 19.5102 20.2812 18.5625 20.2812Z" fill="#4C51CB"/>
</svg>

<svg width="22" height="22" fill="none" xmlns="http://www.w3.org/2000/svg"><path d="M21.14 13.793a.857.857 0 00-.236.034.858.858 0 00-.236-.034H14.91a.859.859 0 00-.7.36l-1.031 1.445H8.692L7.66 14.153a.86.86 0 00-.7-.36H3.009v-4.34a.86.86 0 01.86-.86h14.265a.86.86 0 01.86.86v.902a.86.86 0 101.718 0v-.902c0-.763-.334-1.45-.862-1.922l.003-.054V6.016c0-.762-.333-1.448-.86-1.92V2.578A2.581 2.581 0 0016.414 0H5.586a2.58 2.58 0 00-2.578 2.578v1.518a2.572 2.572 0 00-.86 1.92v1.289c0 .071.01.14.026.206a2.572 2.572 0 00-.885 1.942v4.34h-.043a.856.856 0 00-.193.023.856.856 0 00-1.053.836v3.91A3.441 3.441 0 003.438 22h15.124A3.441 3.441 0 0022 18.562v-3.91a.86.86 0 00-.86-.859zM4.728 2.578a.86.86 0 01.859-.86h10.828a.86.86 0 01.86.86v.86H4.726v-.86zm-.86 3.438a.86.86 0 01.86-.86h12.546a.86.86 0 01.86.86v.859H3.867v-.86zM18.562 20.28H3.438a1.72 1.72 0 01-1.718-1.718v-3.051h4.8l1.032 1.444c.161.227.421.36.699.36h5.371a.859.859 0 00.7-.36l1.031-1.444h4.93v3.05a1.72 1.72 0 01-1.72 1.72z" fill="#4C51CB"/></svg>
